T: Piggot Family Schottische, The
M: 4/4
L: 1/8
K: Dmaj
B2 d2 g2 b2 | ba^gb a2 e2 | fedf e2 FA | edce d3 c |B2 d2 g2 b2 | ba^gb a4 | f2 eB cFBD | GdBd G2 :|A^GAd f2 f2 | A2 Ad f^e f2 | e2 ed c2 Bd | cBAB AGFG |A^GAd f^e f2 | ABAd f4 | e2 ed cAdB | cAGE D2 :|
